X: 71
T: the Humours of Dublin
%R: jig
B: Stewart "A Select Collection of Airs, Jigs, Marches and Reels", ca.1784, p.34 #71
F: http://imslp.org/wiki/A_Select_Collection_of_Airs,_Jigs,_Marches_and_Reels_%28Various%29
Z: 2017 John Chambers <jc:trillian.mit.edu>
M: 6/8
L: 1/8
K: Gmix
|:\
gdc TB2G | dBG (A/B/c)A | gdc TB2G | cAF (A/B/c)A |\
gdc TB2G | (b/c'/d')b c'2a | gfe f2d | cAF (A/B/c)A :|
|:\
Tb2g gbg | gbg (a/b/c')a | Tb2g gbg | c'af (a/b/c')a |\
Tb2g gbg | ece dcB | cec BdB | cAF (A/B/c)A :|
|:\
GBG TB2G | GBG (A/B/c)A | GBG TB2G | cAF (A/B/c)A |\
GBG TB2G | (b/c'/d')b c'2a | gfe f2(d | c)AF (A/B/c)A :|
|:\
Tb2g gbc' | d'bg (a/b/c')a | Tb2g gab | c'af (a/b/c')a |\
Tb2g gbg | ege dcB | cde fed | cAF (A/B/c)A :|
